X: 1
T: Estonian
M: 3/4
L: 1/8
R: waltz
K: Dmaj
F>G|:A2 (G2 F2)|E3 F G>A|B2 (A2 G2)|F4 (F>G)|
F2 (E2 F2)|G3 E C>D|(E4 D2)|1 D4 F>G:|2 D4 d2||
|:(d4 c2)|(c4 B2)|(B4 A2)|d4 F>G|
F2 (E2 F2)|G3 E C>D|(E4 D2)|1 D4 d2:|2 D6||
